X: 1
T: Ukrainian Polka
R: polka
Z: 2009 John Chambers <jc:trillian.mit.edu>
S: printed MS of unknown origin (Susan Worland?)
M: 2/4
L: 1/16
K: Dm
[| "Dm"A2 d4 e2 | f2f2 "A7"e4 \
| "Dm"d8 | "F"a2 a4 a2 \
| "C7"g2a2 b4 | "F2"a8 ||
|: "Dm"a2a2 "Gm"g4 | "Dm"(3f2g2a2 "A7"e4 \
| "Gm"g2f2 e2d2 | "A7"e2^c2 A4 \
| "Dm"A2d4 e2 | "A7"f2e2 g4 \
| "Dm"d8 :|
K: D
|: "G"g2 b4 g2 | "D"f2 a4 f2 \
| "A7"gfed cABc |1,3 "D"d2fg a4 :|2,4 "D"d2f2 d4 :|
